X: 19644
T: Jean's
R: reel
M: 4/4
K: Gmajor
|GD~D2 AD~D2|BD~D2 GD~D2|GD ~D2 AD~D2|BD~D2 GD~D2|
BD~D2 cD~D2|dD~D2 DD~D2|BD~D2 cD~D2|dD~D2 DD~D2|
dDeD dDcD|BD~D2 GD~D2|dDeD dDcD|BD~D2 GD~D2|
GD~D2 BD~D2|GD~D2 DD~D2|GD~D2 BD~D2|GD~D2 DD~D2|

